src/static/logos/vivaldi.svg

<?xml version="1.0" encoding="UTF-8" standalone="no"?>
<svg width="256px" height="256px" viewBox="0 0 256 256" version="1.1" xmlns="http://www.w3.org/2000/svg" xmlns:xlink="http://www.w3.org/1999/xlink" preserveAspectRatio="xMidYMid">
    <defs>
        <linearGradient x1="82.1656009%" y1="64.8270006%" x2="35.1392915%" y2="45.3684509%" id="linearGradient-1">
            <stop stop-color="#000000" stop-opacity="0" offset="0%"></stop>
            <stop stop-color="#000000" stop-opacity="0.2" offset="100%"></stop>
        </linearGradient>
    </defs>
	<g>
		<path d="M0.51600953,48.3895578 C-0.272051811,44.3353337 2.37734097,40.409566 6.42992043,39.6218243 L207.611897,0.516009502 C211.666121,-0.27205184 215.591889,2.37734094 216.379631,6.4299204 L255.485446,207.611897 C256.273507,211.666121 253.624114,215.591889 249.571535,216.379631 L48.3895578,255.485445 C44.3353337,256.273507 40.409566,253.624114 39.6218244,249.571535 L0.51600953,48.3895578 L0.51600953,48.3895578 Z" fill-opacity="0.3" fill="#F03939"></path>
		<path d="M9.53601736,35.2491489 C9.17605492,31.1347594 12.2212885,27.5074344 16.3340089,27.147618 L220.501561,9.28527177 C224.61595,8.92530933 228.243275,11.9705429 228.603091,16.0832634 L246.465438,220.250815 C246.8254,224.365204 243.780166,227.992529 239.667446,228.352346 L35.4998945,246.214692 C31.385505,246.574654 27.75818,243.529421 27.3983636,239.4167 L9.53601736,35.2491489 L9.53601736,35.2491489 Z" fill-opacity="0.5" fill="#F03939"></path>
		<rect fill="#EF3939" x="18.1875005" y="18.1875005" width="219.87429" height="219.87429" rx="7"></rect>
		<path d="M18.4367911,25.6686741 C18.4367911,21.6745809 21.6745515,18.4367911 25.6686741,18.4367911 L230.580616,18.4367911 C234.57471,18.4367911 237.8125,21.6745515 237.8125,25.6686741 L237.8125,230.580616 C237.8125,234.57471 234.574739,237.8125 230.580616,237.8125 L25.6686741,237.8125 C21.6745809,237.8125 18.4367911,234.574739 18.4367911,230.580616 L18.4367911,25.6686741 L18.4367911,25.6686741 Z M17.9382099,25.6686741 L17.9382099,230.580616 C17.9382099,234.850099 21.3992231,238.311081 25.6686741,238.311081 L230.580616,238.311081 C234.850099,238.311081 238.311081,234.850067 238.311081,230.580616 L238.311081,25.6686741 C238.311081,21.3991917 234.850067,17.9382099 230.580616,17.9382099 L25.6686741,17.9382099 C21.3991917,17.9382099 17.9382099,21.3992231 17.9382099,25.6686741 L17.9382099,25.6686741 Z" fill-opacity="0.3" fill="#000000"></path>
		<path d="M238.06179,80.4171692 L238.06179,208.065071 C238.06179,224.631801 224.638652,238.06179 208.065071,238.06179 L181.149307,238.06179 L117.729228,201.441004 L152.829342,140.639032 C153.976078,140.813536 155.147744,140.913252 156.344339,140.913252 C170.952767,140.913252 182.794069,126.205108 182.794069,108.056754 C182.794069,102.821652 181.796907,97.8856982 180.051873,93.498184 L200.21948,58.5725741 L238.06179,80.4171692 Z" fill="url(#linearGradient-1)"></path>
		<path d="M170.678547,84.5237232 C164.346566,71.8348328 171.077412,57.6501989 184.863181,54.6088539 C196.081257,52.1159481 207.698198,60.3425372 209.169012,71.7351166 C209.817168,76.7209281 208.844934,81.2829457 206.352029,85.5956727 C185.910201,121.044793 165.443445,156.468984 145.051476,191.918104 C141.262259,198.499375 135.728008,202.488025 128.174503,203.036464 C119.698624,203.634761 113.042565,200.094835 108.779696,192.740763 C95.8415155,170.528973 83.0529088,148.242395 70.2144441,125.980746 C62.411649,112.444268 54.5589958,98.9077896 46.7811298,85.3463821 C38.9284765,71.6603294 47.7782921,55.0326479 63.5334566,54.209989 C71.8348328,53.786195 78.2665297,57.6252699 82.4795405,64.8297676 C88.2381528,74.6767454 93.897049,84.5985104 99.6058032,94.4704173 C103.719098,101.600128 107.757605,108.779696 111.995545,115.809691 C118.103164,126.055533 127.127483,131.814146 139.093431,132.537089 C156.070119,133.534251 171.825284,121.269154 173.869466,103.270375 C174.019041,101.924206 174.118757,100.578036 174.168615,99.8800228 C174.093828,94.0466233 172.996949,89.1355989 170.678547,84.5237232 L170.678547,84.5237232 Z" fill="#FFFFFF"></path>
	</g>
</svg>

<svg width="256" height="256" xmlns="http://www.w3.org/2000/svg" preserveAspectRatio="xMidYMid"><defs><linearGradient x1="82.166%" y1="64.827%" x2="35.139%" y2="45.368%" id="a"><stop stop-opacity="0" offset="0%"/><stop stop-opacity=".2" offset="100%"/></linearGradient></defs><path d="M.516 48.39a7.48 7.48 0 015.914-8.768L207.612.516a7.48 7.48 0 018.768 5.914l39.105 201.182a7.48 7.48 0 01-5.913 8.768L48.39 255.485a7.48 7.48 0 01-8.768-5.913L.516 48.39z" fill-opacity=".3" fill="#F03939"/><path d="M9.536 35.25a7.48 7.48 0 016.798-8.102L220.502 9.285a7.48 7.48 0 018.101 6.798l17.862 204.168a7.48 7.48 0 01-6.798 8.101L35.5 246.215a7.48 7.48 0 01-8.102-6.798L9.536 35.249z" fill-opacity=".5" fill="#F03939"/><rect fill="#EF3939" x="18.188" y="18.188" width="219.874" height="219.874" rx="7"/><path d="M18.437 25.669a7.232 7.232 0 017.232-7.232H230.58a7.232 7.232 0 017.232 7.232V230.58a7.232 7.232 0 01-7.232 7.232H25.669a7.232 7.232 0 01-7.232-7.232V25.669zm-.499 0V230.58a7.73 7.73 0 007.73 7.73h204.913a7.73 7.73 0 007.73-7.73V25.669a7.73 7.73 0 00-7.73-7.73H25.669a7.73 7.73 0 00-7.73 7.73z" fill-opacity=".3"/><path d="M238.062 80.417v127.648c0 16.567-13.423 29.997-29.997 29.997H181.15l-63.42-36.621 35.1-60.802a23.33 23.33 0 003.515.274c14.609 0 26.45-14.708 26.45-32.856 0-5.235-.997-10.171-2.742-14.559l20.167-34.925 37.843 21.844z" fill="url(#a)"/><path d="M170.679 84.524c-6.332-12.69.398-26.874 14.184-29.915 11.218-2.493 22.835 5.734 24.306 17.126.648 4.986-.324 9.548-2.817 13.86-20.442 35.45-40.909 70.874-61.3 106.323-3.79 6.581-9.324 10.57-16.877 11.118-8.476.599-15.132-2.941-19.395-10.295-12.938-22.212-25.727-44.499-38.566-66.76-7.802-13.537-15.655-27.073-23.433-40.635-7.853-13.686.997-30.313 16.752-31.136 8.302-.424 14.734 3.415 18.947 10.62 5.758 9.847 11.417 19.769 17.126 29.64 4.113 7.13 8.152 14.31 12.39 21.34 6.107 10.246 15.131 16.004 27.097 16.727 16.977.997 32.732-11.268 34.776-29.267.15-1.346.25-2.692.3-3.39-.075-5.833-1.172-10.744-3.49-15.356z" fill="#FFF"/></svg>
